projects/flag-game/flags/Réunion Island.svg

<svg viewBox="0 0 128 85" xmlns="http://www.w3.org/2000/svg" xmlns:xlink="http://www.w3.org/1999/xlink"><clipPath id="a"><path d="m0 0h127.679688v85h-127.679688zm0 0"/></clipPath><g clip-path="url(#a)"><path d="m0 85v-85h127.5v85zm0 0" fill="#ed2939" fill-rule="evenodd"/></g><g fill-rule="evenodd"><path d="m0 0h85v85h-85zm0 0" fill="#fff"/><path d="m0 0h42.5v85h-42.5zm0 0" fill="#002395"/></g></svg>

<?xml version="1.0" encoding="UTF-8"?>
<svg xmlns="http://www.w3.org/2000/svg" xmlns:xlink="http://www.w3.org/1999/xlink" viewBox="0 0 128 85" version="1.1">
<defs>
<clipPath id="clip1">
  <path d="M 0 0 L 127.679688 0 L 127.679688 85 L 0 85 Z M 0 0 "/>
</clipPath>
</defs>
<g id="surface902">
<g clip-path="url(#clip1)" clip-rule="nonzero">
<path style=" stroke:none;fill-rule:evenodd;fill:rgb(92.939758%,16.078186%,22.3526%);fill-opacity:1;" d="M 0 85 L 0 0 L 127.5 0 L 127.5 85 Z M 0 85 "/>
</g>
<path style=" stroke:none;fill-rule:evenodd;fill:rgb(99.998474%,99.998474%,99.998474%);fill-opacity:1;" d="M 0 0 L 85 0 L 85 85 L 0 85 Z M 0 0 "/>
<path style=" stroke:none;fill-rule:evenodd;fill:rgb(0%,13.725281%,58.430481%);fill-opacity:1;" d="M 0 0 L 42.5 0 L 42.5 85 L 0 85 Z M 0 0 "/>
</g>
</svg>
